libs/ui/packages/crypto-icons/src/svg/PAY.svg

<svg width="24" height="24" viewBox="0 0 24 24" fill="none">
<path d="M20.1828 11.772C20.1417 11.6887 20.0872 11.6127 20.0215 11.547C18.595 9.9315 15.6918 6.75 15.6918 6.75L12.004 10.7835L8.26905 6.78825C8.26905 6.78825 5.33205 9.9975 3.8928 11.6302C3.7053 11.8148 3.7053 12.1477 3.8733 12.3442C4.62105 13.1962 8.2938 17.2463 8.2938 17.2463L11.9988 13.1857L15.6783 17.25L20.116 12.3405C20.116 12.3405 20.2098 12.243 20.23 12.1777C20.2735 12.0427 20.242 11.8958 20.1828 11.772ZM5.9388 12.2213C5.8188 12.0795 5.8593 11.8568 5.97105 11.7225C6.44055 11.1877 8.3193 9.1725 8.3193 9.1725L10.9368 11.9513L8.3148 14.8193C8.3148 14.8193 6.7098 13.1062 5.9388 12.2213ZM17.9298 12.3157C17.8745 12.4105 17.8102 12.4996 17.7378 12.582L15.7053 14.7908L13.0803 12L15.6633 9.16875C15.6633 9.16875 17.1513 10.71 17.833 11.5388C17.8908 11.6108 17.959 11.679 17.9883 11.7705C18.0505 11.9497 18.0108 12.1493 17.929 12.315" fill="#302C2C"/>
</svg>

<svg width="24" height="24" viewBox="0 0 24 24" fill="none"><path fill="#302c2c" d="M20.183 11.772a.9.9 0 0 0-.162-.225c-1.426-1.616-4.33-4.797-4.33-4.797l-3.687 4.034-3.735-3.996s-2.937 3.21-4.376 4.842c-.188.185-.188.518-.02.714.748.852 4.42 4.902 4.42 4.902L12 13.186l3.68 4.064 4.437-4.91s.094-.097.114-.162a.56.56 0 0 0-.047-.406m-14.244.45c-.12-.143-.08-.365.032-.5.47-.534 2.348-2.55 2.348-2.55l2.618 2.78-2.622 2.867s-1.605-1.713-2.376-2.598m11.99.094q-.082.143-.191.266l-2.033 2.209L13.08 12l2.583-2.831s1.488 1.541 2.17 2.37c.058.072.126.14.155.232.063.179.023.378-.059.544"/></svg>
